;FLAVOR:Marlin
;TIME:1452
;Filament used: 1.37632m
;Layer height: 0.2
;Generated with Cura_SteamEngine 3.6.0
M82 ;absolute extrusion mode
G21 ; set units to millimeters
G90 ; use absolute positioning
M82 ; absolute extrusion mode
M104 S200 ; set extruder temp
M140 S60 ; set bed temp
M190 S60 ; wait for bed temp
M109 S200 ; wait for extruder temp
G28 W ; home all without mesh bed level
G80 ; mesh bed leveling
G92 E0.0 ; reset extruder distance position
G1 Y-3.0 F1000.0 ; go outside print area
G1 X60.0 E9.0 F1000.0 ; intro line
G1 X100.0 E21.5 F1000.0 ; intro line
G92 E0.0 ; reset extruder distance position
G92 E0
G1 F2100 E-0.8
;LAYER_COUNT:101
;LAYER:0
M107
G0 F3600 X109.08 Y89.922 Z0.15
;TYPE:SKIRT
G1 F2100 E0
G1 F1800 X109.623 Y89.349 E0.01969
G1 X110.222 Y88.834 E0.0394
G1 X110.87 Y88.383 E0.05909
G1 X111.561 Y87.999 E0.07881
G1 X112.286 Y87.687 E0.0985
G1 X113.039 Y87.45 E0.11819
G1 X113.813 Y87.291 E0.1379
G1 X114.598 Y87.21 E0.15759
G1 X115 Y87.2 E0.16762
G1 X135 Y87.2 E0.66652
G1 X135.789 Y87.24 E0.68623
G1 X136.569 Y87.359 E0.70591
G1 X137.334 Y87.557 E0.72562
G1 X138.074 Y87.831 E0.74531
G1 X138.783 Y88.179 E0.76501
G1 X139.454 Y88.597 E0.78473
G1 X140.078 Y89.08 E0.80441
G1 X140.651 Y89.623 E0.82411
G1 X141.166 Y90.222 E0.84381
G1 X141.617 Y90.87 E0.8635
G1 X142.001 Y91.561 E0.88322
G1 X142.313 Y92.286 E0.90291
G1 X142.55 Y93.039 E0.92261
G1 X142.709 Y93.813 E0.94232
G1 X142.79 Y94.598 E0.962
G1 X142.8 Y95 E0.97203
G1 X142.8 Y115 E1.47093
G1 X142.76 Y115.789 E1.49064
G1 X142.641 Y116.569 E1.51032
G1 X142.443 Y117.334 E1.53004
G1 X142.169 Y118.074 E1.54972
G1 X141.821 Y118.783 E1.56942
G1 X141.403 Y119.454 E1.58914
G1 X140.92 Y120.078 E1.60883
G1 X140.377 Y120.651 E1.62852
G1 X139.778 Y121.166 E1.64822
G1 X139.13 Y121.617 E1.66792
G1 X138.439 Y122.001 E1.68764
G1 X137.714 Y122.313 E1.70733
G1 X136.961 Y122.55 E1.72702
G1 X136.187 Y122.709 E1.74673
G1 X135.402 Y122.79 E1.76641
G1 X135 Y122.8 E1.77645
G1 X115 Y122.8 E2.27535
G1 X114.211 Y122.76 E2.29505
G1 X113.431 Y122.641 E2.31474
G1 X112.666 Y122.443 E2.33445
G1 X111.926 Y122.169 E2.35413
G1 X111.217 Y121.821 E2.37383
G1 X110.546 Y121.403 E2.39356
G1 X109.922 Y120.92 E2.41324
G1 X109.349 Y120.377 E2.43293
G1 X108.834 Y119.778 E2.45264
G1 X108.383 Y119.13 E2.47233
G1 X107.999 Y118.439 E2.49205
G1 X107.687 Y117.714 E2.51174
G1 X107.45 Y116.961 E2.53143
G1 X107.291 Y116.187 E2.55114
G1 X107.21 Y115.402 E2.57083
G1 X107.2 Y115 E2.58086
G1 X107.2 Y95 E3.07976
G1 X107.24 Y94.211 E3.09947
G1 X107.359 Y93.431 E3.11915
G1 X107.557 Y92.666 E3.13886
G1 X107.831 Y91.926 E3.15855
G1 X108.179 Y91.217 E3.17825
G1 X108.597 Y90.546 E3.19797
G1 X109.08 Y89.922 E3.21765
G0 F3600 X109.475 Y90.077
G1 F1800 X110.016 Y89.53 E3.23684
G1 X110.611 Y89.042 E3.25604
G1 X111.253 Y88.619 E3.27522
G1 X111.936 Y88.264 E3.29442
G1 X112.651 Y87.983 E3.31358
G1 X113.393 Y87.777 E3.33279
G1 X114.151 Y87.649 E3.35197
G1 X115 Y87.6 E3.37318
G1 X135 Y87.6 E3.87208
G1 X135.768 Y87.64 E3.89127
G1 X136.528 Y87.759 E3.91046
G1 X137.271 Y87.957 E3.92964
G1 X137.99 Y88.231 E3.94883
G1 X138.676 Y88.578 E3.96801
G1 X139.323 Y88.994 E3.9872
G1 X139.923 Y89.475 E4.00638
G1 X140.47 Y90.016 E4.02557
G1 X140.958 Y90.611 E4.04477
G1 X141.381 Y91.253 E4.06395
G1 X141.736 Y91.936 E4.08315
G1 X142.017 Y92.651 E4.10231
G1 X142.223 Y93.393 E4.12152
G1 X142.351 Y94.151 E4.1407
G1 X142.4 Y95 E4.16191
G1 X142.4 Y115 E4.66081
G1 X142.36 Y115.768 E4.68
G1 X142.241 Y116.528 E4.69918
G1 X142.043 Y117.271 E4.71837
G1 X141.769 Y117.99 E4.73756
G1 X141.422 Y118.676 E4.75674
G1 X141.006 Y119.323 E4.77592
G1 X140.525 Y119.923 E4.79511
G1 X139.984 Y120.47 E4.8143
G1 X139.389 Y120.958 E4.83349
G1 X138.747 Y121.381 E4.85267
G1 X138.064 Y121.736 E4.87187
G1 X137.349 Y122.017 E4.89104
G1 X136.607 Y122.223 E4.91025
G1 X135.849 Y122.351 E4.92942
G1 X135 Y122.4 E4.95064
G1 X115 Y122.4 E5.44954
G1 X114.232 Y122.36 E5.46872
G1 X113.472 Y122.241 E5.48791
G1 X112.729 Y122.043 E5.50709
G1 X112.01 Y121.769 E5.52629
G1 X111.324 Y121.422 E5.54546
G1 X110.677 Y121.006 E5.56465
G1 X110.077 Y120.525 E5.58383
G1 X109.53 Y119.984 E5.60303
G1 X109.042 Y119.389 E5.62222
G1 X108.619 Y118.747 E5.6414
G1 X108.264 Y118.064 E5.6606
G1 X107.983 Y117.349 E5.67976
G1 X107.777 Y116.607 E5.69897
G1 X107.649 Y115.849 E5.71815
G1 X107.6 Y115 E5.73936
G1 X107.6 Y95 E6.23827
G1 X107.64 Y94.232 E6.25745
G1 X107.759 Y93.472 E6.27664
G1 X107.957 Y92.729 E6.29582
G1 X108.231 Y92.01 E6.31501
G1 X108.578 Y91.324 E6.33419
G1 X108.994 Y90.677 E6.35338
G1 X109.475 Y90.077 E6.37256
G0 F3600 X109.871 Y90.237
G1 F1800 X110.408 Y89.716 E6.39123
G1 X110.998 Y89.257 E6.40987
G1 X111.634 Y88.862 E6.42855
G1 X112.308 Y88.538 E6.4472
G1 X113.013 Y88.288 E6.46586
G1 X113.741 Y88.114 E6.48453
G1 X114.483 Y88.019 E6.50319
G1 X115 Y88 E6.5161
G1 X135 Y88 E7.015
G1 X135.747 Y88.04 E7.03366
G1 X136.485 Y88.159 E7.05231
G1 X137.207 Y88.357 E7.07098
G1 X137.903 Y88.63 E7.08963
G1 X138.566 Y88.977 E7.1083
G1 X139.189 Y89.392 E7.12697
G1 X139.763 Y89.871 E7.14562
G1 X140.284 Y90.408 E7.16429
G1 X140.743 Y90.998 E7.18293
G1 X141.138 Y91.634 E7.20161
G1 X141.462 Y92.308 E7.22026
G1 X141.712 Y93.013 E7.23892
G1 X141.886 Y93.741 E7.2576
G1 X141.981 Y94.483 E7.27626
G1 X142 Y95 E7.28916
G1 X142 Y115 E7.78806
G1 X141.96 Y115.747 E7.80672
G1 X141.841 Y116.485 E7.82537
G1 X141.643 Y117.207 E7.84405
G1 X141.37 Y117.903 E7.8627
G1 X141.023 Y118.566 E7.88136
G1 X140.608 Y119.189 E7.90004
G1 X140.129 Y119.763 E7.91869
G1 X139.592 Y120.284 E7.93735
G1 X139.002 Y120.743 E7.956
G1 X138.366 Y121.138 E7.97467
G1 X137.692 Y121.462 E7.99333
G1 X136.987 Y121.712 E8.01199
G1 X136.259 Y121.886 E8.03066
G1 X135.517 Y121.981 E8.04932
G1 X135 Y122 E8.06222
G1 X115 Y122 E8.56113
G1 X114.253 Y121.96 E8.57979
G1 X113.515 Y121.841 E8.59843
G1 X112.793 Y121.643 E8.61711
G1 X112.097 Y121.37 E8.63576
G1 X111.434 Y121.023 E8.65443
G1 X110.811 Y120.608 E8.6731
G1 X110.237 Y120.129 E8.69175
G1 X109.716 Y119.592 E8.71041
G1 X109.257 Y119.002 E8.72906
G1 X108.862 Y118.366 E8.74773
G1 X108.538 Y117.692 E8.76639
G1 X108.288 Y116.987 E8.78505
G1 X108.114 Y116.259 E8.80372
G1 X108.019 Y115.517 E8.82238
G1 X108 Y115 E8.83529
G1 X108 Y95 E9.33419
G1 X108.04 Y94.253 E9.35285
G1 X108.159 Y93.515 E9.3715
G1 X108.357 Y92.793 E9.39017
G1 X108.63 Y92.097 E9.40882
G1 X108.977 Y91.434 E9.42749
G1 X109.392 Y90.811 E9.44616
G1 X109.871 Y90.237 E9.46481
G0 F3600 X109.789 Y90.95
G1 F1800 X110.265 Y90.402 E9.48292
G1 X110.799 Y89.909 E9.50105
G1 X111.384 Y89.479 E9.51916
G1 X112.013 Y89.115 E9.53729
G1 X112.678 Y88.822 E9.55541
G1 X113.371 Y88.604 E9.57353
G1 X114.083 Y88.464 E9.59164
G1 X115 Y88.4 E9.61457
G1 X135 Y88.4 E10.11347
G1 X135.725 Y88.44 E10.13158
G1 X136.442 Y88.559 E10.14971
G1 X137.141 Y88.757 E10.16783
G1 X137.814 Y89.03 E10.18595
G1 X138.453 Y89.375 E10.20407
G1 X139.05 Y89.789 E10.22219
G1 X139.598 Y90.265 E10.24029
G1 X140.091 Y90.799 E10.25842
G1 X140.521 Y91.384 E10.27654
G1 X140.885 Y92.013 E10.29466
G1 X141.178 Y92.678 E10.31279
G1 X141.396 Y93.371 E10.33091
G1 X141.536 Y94.083 E10.34901
G1 X141.6 Y95 E10.37194
G1 X141.6 Y115 E10.87085
G1 X141.56 Y115.725 E10.88896
G1 X141.441 Y116.442 E10.90709
G1 X141.243 Y117.141 E10.92521
G1 X140.97 Y117.814 E10.94333
G1 X140.625 Y118.453 E10.96144
G1 X140.211 Y119.05 E10.97957
G1 X139.735 Y119.598 E10.99767
G1 X139.201 Y120.091 E11.0158
G1 X138.616 Y120.521 E11.03391
G1 X137.987 Y120.885 E11.05204
G1 X137.322 Y121.178 E11.07017
G1 X136.629 Y121.396 E11.08829
G1 X135.917 Y121.536 E11.10639
G1 X135 Y121.6 E11.12932
G1 X115 Y121.6 E11.62822
G1 X114.275 Y121.56 E11.64634
G1 X113.558 Y121.441 E11.66447
G1 X112.859 Y121.243 E11.68259
G1 X112.186 Y120.97 E11.70071
G1 X111.547 Y120.625 E11.71882
G1 X110.95 Y120.211 E11.73694
G1 X110.402 Y119.735 E11.75505
G1 X109.909 Y119.201 E11.77318
G1 X109.479 Y118.616 E11.79129
G1 X109.115 Y117.987 E11.80942
G1 X108.822 Y117.322 E11.82755
G1 X108.604 Y116.629 E11.84567
G1 X108.464 Y115.917 E11.86377
G1 X108.4 Y115 E11.8867
G1 X108.4 Y95 E12.3856
G1 X108.44 Y94.275 E12.40372
G1 X108.559 Y93.558 E12.42185
G1 X108.757 Y92.859 E12.43997
G1 X109.03 Y92.186 E12.45808
G1 X109.375 Y91.547 E12.4762
G1 X109.789 Y90.95 E12.49432
G0 F3600 X110.185 Y91.094
G1 F1800 X110.659 Y90.573 E12.51189
G1 X111.189 Y90.109 E12.52946
G1 X111.768 Y89.709 E12.54702
G1 X112.389 Y89.377 E12.56458
G1 X113.043 Y89.117 E12.58214
G1 X113.723 Y88.933 E12.59971
G1 X114.419 Y88.827 E12.61728
G1 X115 Y88.8 E12.63178
G1 X135 Y88.8 E13.13069
G1 X135.703 Y88.84 E13.14825
G1 X136.397 Y88.959 E13.16582
G1 X137.072 Y89.157 E13.18336
G1 X137.721 Y89.429 E13.20092
G1 X138.335 Y89.774 E13.21849
G1 X138.906 Y90.185 E13.23603
G1 X139.427 Y90.659 E13.25361
G1 X139.891 Y91.189 E13.27118
G1 X140.291 Y91.768 E13.28873
G1 X140.623 Y92.389 E13.3063
G1 X140.883 Y93.043 E13.32385
G1 X141.067 Y93.723 E13.34143
G1 X141.173 Y94.419 E13.35899
G1 X141.2 Y95 E13.3735
G1 X141.2 Y115 E13.8724
G1 X141.16 Y115.703 E13.88996
G1 X141.041 Y116.397 E13.90753
G1 X140.843 Y117.072 E13.92508
G1 X140.571 Y117.721 E13.94263
G1 X140.226 Y118.335 E13.9602
G1 X139.815 Y118.906 E13.97775
G1 X139.341 Y119.427 E13.99532
G1 X138.811 Y119.891 E14.01289
G1 X138.232 Y120.291 E14.03044
G1 X137.611 Y120.623 E14.04801
G1 X136.957 Y120.883 E14.06557
G1 X136.277 Y121.067 E14.08314
G1 X135.581 Y121.173 E14.1007
G1 X135 Y121.2 E14.11521
G1 X115 Y121.2 E14.61411
G1 X114.297 Y121.16 E14.63168
G1 X113.603 Y121.041 E14.64924
G1 X112.928 Y120.843 E14.66679
G1 X112.279 Y120.571 E14.68434
G1 X111.665 Y120.226 E14.70191
G1 X111.094 Y119.815 E14.71946
G1 X110.573 Y119.341 E14.73703
G1 X110.109 Y118.811 E14.7546
G1 X109.709 Y118.232 E14.77216
G1 X109.377 Y117.611 E14.78972
G1 X109.117 Y116.957 E14.80728
G1 X108.933 Y116.277 E14.82485
G1 X108.827 Y115.581 E14.84241
G1 X108.8 Y115 E14.85692
G1 X108.8 Y95 E15.35582
G1 X108.84 Y94.297 E15.37339
G1 X108.959 Y93.603 E15.39095
G1 X109.157 Y92.928 E15.4085
G1 X109.429 Y92.279 E15.42605
G1 X109.774 Y91.665 E15.44362
G1 X110.185 Y91.094 E15.46117
G0 F3600 X110.582 Y91.242
G1 F1800 X111.053 Y90.751 E15.47814
G1 X111.578 Y90.317 E15.49514
G1 X112.15 Y89.948 E15.51212
G1 X112.762 Y89.649 E15.52911
G1 X113.404 Y89.424 E15.54608
G1 X114.069 Y89.275 E15.56308
G1 X115 Y89.2 E15.58638
G1 X135 Y89.2 E16.08528
G1 X135.68 Y89.24 E16.10227
G1 X136.35 Y89.359 E16.11924
G1 X137.002 Y89.556 E16.13624
G1 X137.626 Y89.828 E16.15322
G1 X138.214 Y90.172 E16.17021
G1 X138.758 Y90.582 E16.1872
G1 X139.249 Y91.053 E16.20417
G1 X139.683 Y91.578 E16.22117
G1 X140.052 Y92.15 E16.23815
G1 X140.351 Y92.762 E16.25514
G1 X140.576 Y93.404 E16.27211
G1 X140.725 Y94.069 E16.28911
G1 X140.8 Y95 E16.31241
G1 X140.8 Y115 E16.81131
G1 X140.76 Y115.68 E16.8283
G1 X140.641 Y116.35 E16.84527
G1 X140.444 Y117.002 E16.86226
G1 X140.172 Y117.626 E16.87924
G1 X139.828 Y118.214 E16.89624
G1 X139.418 Y118.758 E16.91323
G1 X138.947 Y119.249 E16.9302
G1 X138.422 Y119.683 E16.94719
G1 X137.85 Y120.052 E16.96417
G1 X137.238 Y120.351 E16.98117
G1 X136.596 Y120.576 E16.99814
G1 X135.931 Y120.725 E17.01514
G1 X135 Y120.8 E17.03843
G1 X115 Y120.8 E17.53734
G1 X114.32 Y120.76 E17.55433
G1 X113.65 Y120.641 E17.5713
G1 X112.998 Y120.444 E17.58829
G1 X112.374 Y120.172 E17.60527
G1 X111.786 Y119.828 E17.62227
G1 X111.242 Y119.418 E17.63926
G1 X110.751 Y118.947 E17.65623
G1 X110.317 Y118.422 E17.67322
G1 X109.948 Y117.85 E17.6902
G1 X109.649 Y117.238 E17.70719
G1 X109.424 Y116.596 E17.72416
G1 X109.275 Y115.931 E17.74116
G1 X109.2 Y115 E17.76446
G1 X109.2 Y95 E18.26337
G1 X109.24 Y94.32 E18.28036
G1 X109.359 Y93.65 E18.29733
G1 X109.556 Y92.998 E18.31432
G1 X109.828 Y92.374 E18.3313
G1 X110.172 Y91.786 E18.3483
G1 X110.582 Y91.242 E18.36529
G0 F3600 X110.978 Y91.397
G1 F1800 X111.445 Y90.935 E18.38168
G1 X111.965 Y90.534 E18.39806
G1 X112.529 Y90.198 E18.41443
G1 X113.131 Y89.934 E18.43083
G1 X113.76 Y89.744 E18.44722
G1 X114.407 Y89.633 E18.4636
G1 X115 Y89.6 E18.47841
G1 X135 Y89.6 E18.97731
G1 X135.656 Y89.64 E18.99371
G1 X136.302 Y89.759 E19.01009
G1 X136.929 Y89.956 E19.02649
G1 X137.527 Y90.228 E19.04288
G1 X138.088 Y90.57 E19.05927
G1 X138.603 Y90.978 E19.07566
G1 X139.065 Y91.445 E19.09204
G1 X139.466 Y91.965 E19.10842
G1 X139.802 Y92.529 E19.1248
G1 X140.066 Y93.131 E19.1412
G1 X140.256 Y93.76 E19.15759
G1 X140.367 Y94.407 E19.17396
G1 X140.4 Y95 E19.18878
G1 X140.4 Y115 E19.68768
G1 X140.36 Y115.656 E19.70407
G1 X140.241 Y116.302 E19.72046
G1 X140.044 Y116.929 E19.73685
G1 X139.772 Y117.527 E19.75324
G1 X139.43 Y118.088 E19.76963
G1 X139.022 Y118.603 E19.78602
G1 X138.555 Y119.065 E19.80241
G1 X138.035 Y119.466 E19.81879
G1 X137.471 Y119.802 E19.83516
G1 X136.869 Y120.066 E19.85156
G1 X136.24 Y120.256 E19.86795
G1 X135.593 Y120.367 E19.88433
G1 X135 Y120.4 E19.89914
G1 X115 Y120.4 E20.39805
G1 X114.344 Y120.36 E20.41444
G1 X113.698 Y120.241 E20.43083
G1 X113.071 Y120.044 E20.44722
G1 X112.473 Y119.772 E20.46361
G1 X111.912 Y119.43 E20.48
G1 X111.397 Y119.022 E20.49639
G1 X110.935 Y118.555 E20.51277
G1 X110.534 Y118.035 E20.52915
G1 X110.198 Y117.471 E20.54553
G1 X109.934 Y116.869 E20.56193
G1 X109.744 Y116.24 E20.57832
G1 X109.633 Y115.593 E20.59469
G1 X109.6 Y115 E20.60951
G1 X109.6 Y95 E21.10841
G1 X109.64 Y94.344 E21.12481
G1 X109.759 Y93.698 E21.14119
G1 X109.956 Y93.071 E21.15759
G1 X110.228 Y92.473 E21.17397
G1 X110.57 Y91.912 E21.19036
G1 X110.978 Y91.397 E21.20675
G0 F3600 X111.373 Y91.559
G1 F1800 X111.836 Y91.129 E21.22252
G1 X112.35 Y90.76 E21.2383
G1 X112.906 Y90.46 E21.25406
G1 X113.495 Y90.232 E21.26981
G1 X114.109 Y90.08 E21.28559
G1 X115 Y90 E21.30791
G1 X135 Y90 E21.80681
G1 X135.631 Y90.04 E21.82258
G1 X136.252 Y90.159 E21.83835
G1 X136.852 Y90.356 E21.85411
G1 X137.424 Y90.627 E21.8699
G1 X137.956 Y90.967 E21.88565
G1 X138.441 Y91.373 E21.90142
G1 X138.871 Y91.836 E21.91719
G1 X139.24 Y92.35 E21.93297
G1 X139.54 Y92.906 E21.94873
G1 X139.768 Y93.495 E21.96448
G1 X139.92 Y94.109 E21.98026
G1 X140 Y95 E22.00258
G1 X140 Y115 E22.50148
G1 X139.96 Y115.631 E22.51725
G1 X139.841 Y116.252 E22.53303
G1 X139.644 Y116.852 E22.54878
G1 X139.373 Y117.424 E22.56457
G1 X139.033 Y117.956 E22.58032
G1 X138.627 Y118.441 E22.5961
G1 X138.164 Y118.871 E22.61186
G1 X137.65 Y119.24 E22.62764
G1 X137.094 Y119.54 E22.6434
G1 X136.505 Y119.768 E22.65916
G1 X135.891 Y119.92 E22.67493
G1 X135 Y120 E22.69725
G1 X115 Y120 E23.19615
G1 X114.369 Y119.96 E23.21192
G1 X113.748 Y119.841 E23.2277
G1 X113.148 Y119.644 E23.24345
G1 X112.576 Y119.373 E23.25924
G1 X112.044 Y119.033 E23.27499
G1 X111.559 Y118.627 E23.29077
G1 X111.129 Y118.164 E23.30653
G1 X110.76 Y117.65 E23.32231
G1 X110.46 Y117.094 E23.33807
G1 X110.232 Y116.505 E23.35383
G1 X110.08 Y115.891 E23.36961
G1 X110 Y115 E23.39192
G1 X110 Y95 E23.89082
G1 X110.04 Y94.369 E23.90659
G1 X110.159 Y93.748 E23.92237
G1 X110.356 Y93.148 E23.93812
G1 X110.627 Y92.576 E23.95391
G1 X110.967 Y92.044 E23.96966
G1 X111.373 Y91.559 E23.98544
G0 F3600 X111.365 Y92.181
G1 F1800 X111.767 Y91.728 E24.00055
G1 X112.225 Y91.331 E24.01566
G1 X112.732 Y90.998 E24.0308
G1 X113.278 Y90.734 E24.04592
G1 X113.854 Y90.545 E24.06105
G1 X114.45 Y90.433 E24.07617
G1 X115 Y90.4 E24.08992
G1 X135 Y90.4 E24.58882
G1 X135.605 Y90.44 E24.60395
G1 X136.199 Y90.559 E24.61906
G1 X136.773 Y90.755 E24.63419
G1 X137.316 Y91.026 E24.64933
G1 X137.819 Y91.365 E24.66446
G1 X138.272 Y91.767 E24.67956
G1 X138.669 Y92.225 E24.69468
G1 X139.002 Y92.732 E24.70982
G1 X139.266 Y93.278 E24.72494
G1 X139.455 Y93.854 E24.74007
G1 X139.567 Y94.45 E24.75519
G1 X139.6 Y95 E24.76894
G1 X139.6 Y115 E25.26784
